src/components/00-materials/images-raw/Bank Dollar.svg

<svg width="96" height="96" viewBox="0 0 96 96" fill="none" xmlns="http://www.w3.org/2000/svg">
<path d="M19 73V68H77V73M24 68L25 38L24 68ZM31 38L32 68L31 38ZM51 38L52 68L51 38ZM44 68L45 38L44 68Z" stroke="#00008F" stroke-width="2" stroke-linecap="round" stroke-linejoin="round"/>
<path d="M48 28C49.6569 28 51 26.6569 51 25C51 23.3431 49.6569 22 48 22C46.3431 22 45 23.3431 45 25C45 26.6569 46.3431 28 48 28Z" stroke="#00008F" stroke-width="2" stroke-linecap="round" stroke-linejoin="round"/>
<path d="M19 33V38H59M15 73H81V78H15V73Z" stroke="#00008F" stroke-width="2" stroke-linecap="round" stroke-linejoin="round"/>
<path d="M71 45C78.1797 45 84 39.1797 84 32C84 24.8203 78.1797 19 71 19C63.8203 19 58 24.8203 58 32C58 39.1797 63.8203 45 71 45Z" stroke="#00008F" stroke-width="2" stroke-linecap="round" stroke-linejoin="round"/>
<path d="M67.07 36.38C67.3395 37.1922 67.8725 37.891 68.5845 38.3657C69.2965 38.8404 70.1467 39.0636 71 39C73.21 39 75 37.59 75 35.85C74.9959 35.5738 74.9346 35.3014 74.82 35.05C74.5552 34.5012 74.1388 34.0396 73.62 33.72L71 32L68.38 30.28C67.8682 29.9739 67.4525 29.5304 67.18 29C67.0654 28.7486 67.0041 28.4762 67 28.2C67 26.41 68.79 25 71 25C71.8549 24.9352 72.7068 25.1592 73.4194 25.6361C74.1319 26.1129 74.6638 26.815 74.93 27.63M58 32C57.9898 28.951 59.0517 25.9954 61 23.65L48 16L19 33H58.05C58 32.67 58 32.34 58 32ZM72 68L71.1 44.99L72 68ZM65.02 43.54L64 68L65.02 43.54ZM71 23V41V23Z" stroke="#00008F" stroke-width="2" stroke-linecap="round" stroke-linejoin="round"/>
</svg>

<svg width="96" height="96" viewBox="0 0 96 96" fill="none" xmlns="http://www.w3.org/2000/svg"><path d="M19 73v-5h58v5m-53-5l1-30-1 30zm7-30l1 30-1-30zm20 0l1 30-1-30zm-7 30l1-30-1 30zM48 28a3 3 0 100-6 3 3 0 000 6zM19 33v5h40M15 73h66v5H15v-5zM71 45c7.18 0 13-5.82 13-13s-5.82-13-13-13-13 5.82-13 13 5.82 13 13 13z" stroke="#00008F" stroke-width="2" stroke-linecap="round" stroke-linejoin="round"/><path d="M67.07 36.38A3.84 3.84 0 0071 39c2.21 0 4-1.41 4-3.15a2 2 0 00-.18-.8 3.19 3.19 0 00-1.2-1.33L71 32l-2.62-1.72a3.19 3.19 0 01-1.2-1.28 2 2 0 01-.18-.8c0-1.79 1.79-3.2 4-3.2a3.83 3.83 0 013.93 2.63M58 32a13 13 0 013-8.35L48 16 19 33h39.05c-.05-.33-.05-.66-.05-1zm14 36l-.9-23.01L72 68zm-6.98-24.46L64 68l1.02-24.46zM71 23v18-18z" stroke="#00008F" stroke-width="2" stroke-linecap="round" stroke-linejoin="round"/></svg>
